assets/icons/favorite-icon.svg

<svg width="24" height="24" viewBox="0 0 24 24" fill="none" xmlns="http://www.w3.org/2000/svg">
<path fill-rule="evenodd" clip-rule="evenodd" d="M12 1.53191C6.21863 1.53191 1.53191 6.21863 1.53191 12C1.53191 17.7813 6.21863 22.4681 12 22.4681C17.7813 22.4681 22.4681 17.7813 22.4681 12C22.4681 6.21863 17.7813 1.53191 12 1.53191ZM0 12C0 5.37258 5.37258 0 12 0C18.6274 0 24 5.37258 24 12C24 18.6274 18.6274 24 12 24C5.37258 24 0 18.6274 0 12Z" fill="white"/>
<path fill-rule="evenodd" clip-rule="evenodd" d="M8.9219 6.84588C8.07713 6.75184 7.31281 6.98375 6.72438 7.62203C5.43134 9.02457 5.34284 11.2403 6.4598 12.7531C6.4853 12.7875 6.50814 12.8236 6.52832 12.8607L12 18.7957L17.4716 12.8607C17.4918 12.8236 17.5147 12.7875 17.5402 12.7531C18.6572 11.2403 18.5686 9.02457 17.2755 7.62203C16.6872 6.98375 15.9229 6.75184 15.0781 6.84588C14.2168 6.94177 13.3028 7.37923 12.5452 8.0374C12.3853 8.17627 12.1917 8.24229 12 8.23756C11.8083 8.24227 11.6147 8.17627 11.4549 8.0374C10.6971 7.37923 9.7832 6.94177 8.9219 6.84588ZM12 6.20952C11.1314 5.58118 10.1199 5.14354 9.09378 5.02931C7.84403 4.89018 6.54532 5.23374 5.53393 6.33077C3.68186 8.33968 3.50709 11.4776 5.00878 13.7007C5.05061 13.8077 5.11132 13.9062 5.18859 13.99L11.4048 20.7326C11.7335 21.0891 12.2664 21.0891 12.5952 20.7326L18.8114 13.99C18.8886 13.9062 18.9493 13.8077 18.9912 13.7007C20.4929 11.4776 20.3182 8.33968 18.466 6.33077C17.4547 5.23374 16.156 4.89018 14.9062 5.02931C13.8801 5.14354 12.8686 5.58118 12 6.20952Z" fill="white"/>
</svg>

<svg width="24" height="24" fill="none" xmlns="http://www.w3.org/2000/svg"><path fill-rule="evenodd" clip-rule="evenodd" d="M12 1.532C6.219 1.532 1.532 6.219 1.532 12S6.219 22.468 12 22.468 22.468 17.781 22.468 12 17.781 1.532 12 1.532zM0 12C0 5.373 5.373 0 12 0s12 5.373 12 12-5.373 12-12 12S0 18.627 0 12z" fill="#fff"/><path fill-rule="evenodd" clip-rule="evenodd" d="M8.922 6.846c-.845-.094-1.61.138-2.198.776-1.293 1.403-1.381 3.618-.264 5.131.025.034.048.07.068.108L12 18.796l5.472-5.935a.918.918 0 0 1 .068-.108c1.117-1.513 1.029-3.728-.264-5.131-.589-.638-1.353-.87-2.198-.776-.861.096-1.775.533-2.533 1.191a.798.798 0 0 1-.545.2.798.798 0 0 1-.545-.2c-.758-.658-1.672-1.095-2.533-1.191zM12 6.21c-.869-.629-1.88-1.066-2.906-1.18-1.25-.14-2.549.204-3.56 1.3-1.852 2.01-2.027 5.148-.525 7.37a.921.921 0 0 0 .18.29l6.216 6.743a.796.796 0 0 0 1.19 0l6.216-6.743a.924.924 0 0 0 .18-.29c1.502-2.222 1.327-5.36-.525-7.37-1.011-1.096-2.31-1.44-3.56-1.3-1.026.114-2.037.551-2.906 1.18z" fill="#fff"/></svg>
